X: 42
T:Marcock
% Nottingham Music Database
P:AAB
S:Pa Shallin Squattin Kev2er 1575
M:3/4
L:1/4
K:D
f/2e/2|"D"d2c|"G"B3/2c/2B|"E7"Bee|"A7"A2c|"D"d2c|"E7"Bee|"A"fee|"A7"ce2|"A7"A(3c/2B/2A/2B/2G/2\
|"A"A2:|
P:B
"D"d2A|"B7"f3/2e/2d|"A"f2e|"D"f2e|"D"f2e|"G"e2d|"A"c2e|"A"a2e|"A"ed2e|"D"fee|"G"g2f|"A"a2e|"D"e2d|"A"ea2|\
"Bm"f3/2e/2d|"E7"Bcd|"A"ee^c|"F#m"c2:|
